24x24/apps/ddaynormandy.svg

<svg xmlns="http://www.w3.org/2000/svg" width="24" height="24" version="1">
 <rect style="opacity:0.2" width="20" height="20" x="2" y="2.5" rx="1" ry="1"/>
 <rect style="fill:#71743a" width="20" height="20" x="2" y="2" rx="1" ry="1"/>
 <path style="opacity:0.1" d="M 3 2 C 2.446 2 2 2.446 2 3 L 2 21 C 2 21.554 2.446 22 3 22 L 21 22 C 21.554 22 22 21.554 22 21 L 22 3 C 22 2.446 21.554 2 21 2 L 3 2 z M 4 4 L 20 4 L 20 20 L 4 20 L 4 4 z"/>
 <path style="opacity:0.1;fill:#f4f4f7" d="M 3,2 C 2.446,2 2,2.446 2,3 v 0.5 c 0,-0.554 0.446,-1 1,-1 h 18 c 0.554,0 1,0.446 1,1 V 3 C 22,2.446 21.554,2 21,2 Z"/>
 <path style="opacity:0.1" d="M 12.000001,5.5000005 14.317628,10.108515 19.5,10.847525 15.75,14.434753 16.635255,19.5 12,17.108515 7.364745,19.5 8.2499995,14.434753 4.4999997,10.847525 9.682372,10.108515 Z"/>
 <path style="fill:#363636" d="M 12,5.0000002 14.317628,9.6085142 19.5,10.347524 15.75,13.934752 16.635255,19 12,16.608515 7.3647449,19 8.2499994,13.934752 4.4999997,10.347524 9.6823721,9.6085142 Z"/>
</svg>

<svg xmlns="http://www.w3.org/2000/svg" width="24" height="24" version="1"><rect style="opacity:.2" width="20" height="20" x="2" y="2.5" rx="1" ry="1"/><rect style="fill:#71743a" width="20" height="20" x="2" y="2" rx="1" ry="1"/><path style="opacity:.1" d="M3 2c-.554 0-1 .446-1 1v18c0 .554.446 1 1 1h18c.554 0 1-.446 1-1V3c0-.554-.446-1-1-1H3zm1 2h16v16H4V4z"/><path style="opacity:.1;fill:#f4f4f7" d="M3 2c-.554 0-1 .446-1 1v.5c0-.554.446-1 1-1h18c.554 0 1 .446 1 1V3c0-.554-.446-1-1-1z"/><path style="opacity:.1" d="m12 5.5 2.318 4.609 5.182.739-3.75 3.587.885 5.065L12 17.109 7.365 19.5l.885-5.065-3.75-3.587 5.182-.74z"/><path style="fill:#363636" d="m12 5 2.318 4.609 5.182.739-3.75 3.587.885 5.065L12 16.609 7.365 19l.885-5.065-3.75-3.587 5.182-.74z"/></svg>
